src/telerik-icons/solid/select-box.svg

<?xml version="1.0" encoding="utf-8"?>
<svg xmlns="http://www.w3.org/2000/svg" width="512" height="512" viewBox="0 0 512 512">
  <path d="M384 352H128v-32h256v32zm0 32H128v32h256v-32zm0-128H128v32h256v-32zm96-192v128c0 17.6-14.4 32-32 32v224c0 17.7-14.3 32-32 32H96c-17.7 0-32-14.3-32-32V224c-17.6 0-32-14.4-32-32V64c0-17.6 14.4-32 32-32h384c17.6 0 32 14.4 32 32zM352 96l32 64 32-64h-64zm64 128H96v224h320V224z"/>
</svg>

<?xml version="1.0" encoding="utf-8"?>
<!-- Generator: Adobe Illustrator 19.2.1, SVG Export Plug-In . SVG Version: 6.00 Build 0)  -->
<svg xmlns="http://www.w3.org/2000/svg" width="512" height="512" viewBox="0 0 512 512">
<path d="M384,352H128v-32h256V352z M384,384H128v32h256V384z M384,256H128v32h256V256z M480,64v128
	c0,17.6-14.4,32-32,32v224c0,17.7-14.3,32-32,32H96c-17.7,0-32-14.3-32-32V224c-17.6,0-32-14.4-32-32V64c0-17.6,14.4-32,32-32h384
	C465.6,32,480,46.4,480,64z M352,96l32,64l32-64H352z M416,224H96v224h320V224z" />
</svg>
